X:4
T:La Ligue de Vieux Poele (in G)
L:1/8
M:4/4
K:Gmaj
"G"G3 (A B3 A) | A(GFD) "D"A(DEF) | "G"G2(AG B2) (AB) | u(AGFD) "C"EC "D"(D2 |
"G"G3) (A B3 A) | A(GFD) "D"A(DEF) | "G"G2(AG B2) (AB) | u(AGFD) "C"E3 D :||
"D"A3 (A GFED) | "G"G2(BG AG)(BG | "C"c3) u(c "G"BA)Gu(B | "Em"AE)Eu(D E4) |1
"D"A3 (A GFED) | "G"G2(BG AG)(BG | "C"c3) u(c "G"BA)GB | "D"+>+AAA +>+AAA +>+AG :||2
"D"A3 (A GFED) | "G"G2(BG AG)(BG | "C"c3) u(c "G"BA)GB| "D"A(DcB) A(GBA) ||
"^Alt Chords for A part" "Em"G3 A B3 A | AGFD ADEF | "Bm"GDAD B2 AB | AGFD EC D2 |
"C"G3 A B3 A | AGFD ADEF | "Bm"GDAD "G"B2 AB | "D"AGFD "C"E3 D ||

%%newpage
%%header "	"

